public/images/icon-check.svg

<svg width="14" height="14" viewBox="0 0 14 14" fill="none" xmlns="http://www.w3.org/2000/svg">
<mask id="path-1-inside-1_84_21185" fill="white">
<path fill-rule="evenodd" clip-rule="evenodd" d="M11.6947 3.70507C11.8259 3.83634 11.8996 4.01436 11.8996 4.19997C11.8996 4.38559 11.8259 4.5636 11.6947 4.69487L6.0947 10.2949C5.96343 10.4261 5.78541 10.4998 5.5998 10.4998C5.41418 10.4998 5.23617 10.4261 5.1049 10.2949L2.3049 7.49487C2.17739 7.36285 2.10683 7.18603 2.10842 7.00249C2.11002 6.81895 2.18364 6.64339 2.31342 6.5136C2.44321 6.38381 2.61878 6.3102 2.80232 6.3086C2.98585 6.30701 3.16268 6.37756 3.2947 6.50507L5.5998 8.81017L10.7049 3.70507C10.8362 3.57384 11.0142 3.50012 11.1998 3.50012C11.3854 3.50012 11.5634 3.57384 11.6947 3.70507Z"/>
</mask>
<path fill-rule="evenodd" clip-rule="evenodd" d="M11.6947 3.70507C11.8259 3.83634 11.8996 4.01436 11.8996 4.19997C11.8996 4.38559 11.8259 4.5636 11.6947 4.69487L6.0947 10.2949C5.96343 10.4261 5.78541 10.4998 5.5998 10.4998C5.41418 10.4998 5.23617 10.4261 5.1049 10.2949L2.3049 7.49487C2.17739 7.36285 2.10683 7.18603 2.10842 7.00249C2.11002 6.81895 2.18364 6.64339 2.31342 6.5136C2.44321 6.38381 2.61878 6.3102 2.80232 6.3086C2.98585 6.30701 3.16268 6.37756 3.2947 6.50507L5.5998 8.81017L10.7049 3.70507C10.8362 3.57384 11.0142 3.50012 11.1998 3.50012C11.3854 3.50012 11.5634 3.57384 11.6947 3.70507Z" fill="#1F2A37"/>
<path d="M11.6947 3.70507L12.7555 2.64457L12.7552 2.64425L11.6947 3.70507ZM11.8996 4.19997H13.3996H11.8996ZM11.6947 4.69487L12.7554 5.75553L12.7555 5.75537L11.6947 4.69487ZM6.0947 10.2949L7.1552 11.3557L7.15536 11.3555L6.0947 10.2949ZM5.1049 10.2949L4.04424 11.3555L4.0444 11.3557L5.1049 10.2949ZM2.3049 7.49487L1.22596 8.53694L1.23502 8.54632L1.24424 8.55553L2.3049 7.49487ZM3.2947 6.50507L4.35536 5.44441L4.34614 5.4352L4.33676 5.42614L3.2947 6.50507ZM5.5998 8.81017L4.53914 9.87083L5.5998 10.9315L6.66046 9.87083L5.5998 8.81017ZM10.7049 3.70507L9.6444 2.64425L9.64424 2.64441L10.7049 3.70507ZM11.1998 3.50012V5.00012V3.50012ZM10.6339 4.76557C10.4839 4.61555 10.3996 4.4121 10.3996 4.19997H13.3996C13.3996 3.61661 13.168 3.05714 12.7555 2.64457L10.6339 4.76557ZM10.3996 4.19997C10.3996 3.98784 10.4839 3.7844 10.6339 3.63437L12.7555 5.75537C13.168 5.34281 13.3996 4.78333 13.3996 4.19997H10.3996ZM10.634 3.63421L5.03404 9.23421L7.15536 11.3555L12.7554 5.75553L10.634 3.63421ZM5.0342 9.23405C5.18422 9.08408 5.38766 8.99982 5.5998 8.99982V11.9998C6.18316 11.9998 6.74264 11.7681 7.1552 11.3557L5.0342 9.23405ZM5.5998 8.99982C5.81193 8.99982 6.01538 9.08408 6.1654 9.23405L4.0444 11.3557C4.45696 11.7681 5.01643 11.9998 5.5998 11.9998V8.99982ZM6.16556 9.23421L3.36556 6.43421L1.24424 8.55553L4.04424 11.3555L6.16556 9.23421ZM3.38383 6.4528C3.52955 6.60369 3.61019 6.80577 3.60837 7.01553L0.608482 6.98946C0.603469 7.56629 0.825217 8.12202 1.22596 8.53694L3.38383 6.4528ZM3.60837 7.01553C3.60655 7.22528 3.52241 7.42593 3.37408 7.57426L1.25276 5.45294C0.844865 5.86084 0.613494 6.41263 0.608482 6.98946L3.60837 7.01553ZM3.37408 7.57426C3.22576 7.72259 3.02511 7.80672 2.81535 7.80854L2.78928 4.80866C2.21245 4.81367 1.66066 5.04504 1.25276 5.45294L3.37408 7.57426ZM2.81535 7.80854C2.60559 7.81037 2.40351 7.72973 2.25263 7.584L4.33676 5.42614C3.92184 5.02539 3.36611 4.80365 2.78928 4.80866L2.81535 7.80854ZM2.23404 7.56573L4.53914 9.87083L6.66046 7.74951L4.35536 5.44441L2.23404 7.56573ZM6.66046 9.87083L11.7656 4.76573L9.64424 2.64441L4.53914 7.74951L6.66046 9.87083ZM11.7654 4.76589C11.6154 4.91587 11.4119 5.00012 11.1998 5.00012V2.00012C10.6164 2.00012 10.057 2.23182 9.6444 2.64425L11.7654 4.76589ZM11.1998 5.00012C10.9877 5.00012 10.7842 4.91587 10.6342 4.76589L12.7552 2.64425C12.3426 2.23182 11.7832 2.00012 11.1998 2.00012V5.00012Z" fill="white" mask="url(#path-1-inside-1_84_21185)"/>
</svg>

<svg xmlns="http://www.w3.org/2000/svg" width="14" height="14" fill="none"><mask id="a" fill="#fff"><path fill-rule="evenodd" d="M11.6947 3.705a.7.7 0 0 1 0 .9899l-5.6 5.6a.7.7 0 0 1-.9898 0l-2.8-2.8a.7.7 0 0 1 .9898-.9898L5.5998 8.81l5.1051-5.105a.7.7 0 0 1 .9898 0Z" clip-rule="evenodd"/></mask><path fill="#1F2A37" fill-rule="evenodd" d="M11.6947 3.705a.7.7 0 0 1 0 .9899l-5.6 5.6a.7.7 0 0 1-.9898 0l-2.8-2.8a.7.7 0 0 1 .9898-.9898L5.5998 8.81l5.1051-5.105a.7.7 0 0 1 .9898 0Z" clip-rule="evenodd"/><path fill="#fff" d="m11.6947 3.705 1.0608-1.0604-.0003-.0004-1.0605 1.0609Zm.2049.495h1.5-1.5Zm-.2049.4949 1.0607 1.0606.0001-.0001-1.0608-1.0605Zm-5.6 5.6 1.0605 1.0608.0002-.0002-1.0607-1.0606Zm-.9898 0-1.0607 1.0606.0002.0002 1.0605-1.0608Zm-2.8-2.8-1.079 1.042.0091.0094.0092.0092L2.305 7.495Zm.9898-.9898 1.0607-1.0607-.0093-.0092-.0093-.009L3.2947 6.505ZM5.5998 8.81 4.5391 9.8709l1.0607 1.0607 1.0607-1.0607-1.0607-1.0606Zm5.1051-5.105L9.6444 2.6443l-.0002.0001 1.0607 1.0607Zm.4949-.205v1.5-1.5Zm-.5659 1.2655a.8.8 0 0 1-.2343-.5656h3a2.1997 2.1997 0 0 0-.6441-1.5554l-2.1216 2.121ZM10.3996 4.2a.8.8 0 0 1 .2343-.5656l2.1216 2.121A2.1997 2.1997 0 0 0 13.3996 4.2h-3Zm.2344-.5658-5.6 5.6 2.1214 2.1213 5.6-5.6-2.1214-2.1213ZM5.0342 9.234a.8.8 0 0 1 .5656-.2342v3a2.2001 2.2001 0 0 0 1.5554-.6441L5.0342 9.234Zm.5656-.2342a.8.8 0 0 1 .5656.2342l-2.121 2.1217c.4126.4124.972.6441 1.5554.6441v-3Zm.5658.2344-2.8-2.8-2.1214 2.1213 2.8 2.8 2.1214-2.1213ZM3.3838 6.4528a.8.8 0 0 1 .2246.5627l-3-.026a2.2 2.2 0 0 0 .6176 1.5474l2.1578-2.0841Zm.2246.5627a.8.8 0 0 1-.2343.5588L1.2528 5.4529a2.2 2.2 0 0 0-.6443 1.5366l2.9999.026Zm-.2343.5588a.8.8 0 0 1-.5587.2342l-.0261-2.9998a2.2 2.2 0 0 0-1.5365.6442L3.374 7.5743Zm-.5587.2342a.8.8 0 0 1-.5628-.2245l2.0842-2.1579a2.2 2.2 0 0 0-1.5475-.6174l.026 2.9998Zm-.5814-.2428 2.3051 2.3051 2.1214-2.1213-2.3051-2.305L2.234 7.5656Zm4.4265 2.3051 5.1051-5.105-2.1214-2.1214-5.105 5.1051 2.1213 2.1213Zm5.1049-5.105a.8.8 0 0 1-.5656.2343v-3a2.2 2.2 0 0 0-1.5554.6441l2.121 2.1217Zm-.5656.2343a.8.8 0 0 1-.5656-.2342l2.121-2.1217a2.2 2.2 0 0 0-1.5554-.644v3Z" mask="url(#a)"/></svg>
